report_00007_2020-12-11T15:55:29.892Z/network-rtt/samples/pages+cached+noexternal+nojs/raw/sorted.svg

<svg width="640" height="490" xmlns="http://www.w3.org/2000/svg" xmlns:xlink="http://www.w3.org/1999/xlink"><path fill="#fff" d="M0 0h640v490H0z"/><defs><path id="d" stroke-width=".222" stroke="currentColor" d="M-1-1h2v2h-2z"/><path id="b" stroke-width=".222" stroke="currentColor" d="M0-1.33l-1.33 2h2.66z"/><path id="f" stroke-width=".222" stroke="currentColor" d="M0 1.33L1.265.411.782-1.067l-1.564-.009-.483 1.487z"/><use xlink:href="#b" id="c" stroke="currentColor" transform="rotate(180)"/><use xlink:href="#d" id="e" stroke="currentColor" transform="rotate(45)"/><circle id="a" stroke-width=".222" stroke="currentColor" cx="0" cy="0" r="1"/></defs><g fill="none" color="#000" stroke="currentColor"><path stroke="#000" d="M53.9 432.2h9m552.1 0h-9"/><text transform="translate(45.6 436.1)" stroke="none" fill="#000" font-family="Arial" font-size="12" text-anchor="end"><tspan>0</tspan></text></g><g fill="none" color="#000" stroke="currentColor"><path stroke="#000" d="M53.9 376.3h9m552.1 0h-9"/><text transform="translate(45.6 380.2)" stroke="none" fill="#000" font-family="Arial" font-size="12" text-anchor="end"><tspan>0.5</tspan></text></g><g fill="none" color="#000" stroke="currentColor"><path stroke="#000" d="M53.9 320.4h9m552.1 0h-9"/><text transform="translate(45.6 324.3)" stroke="none" fill="#000" font-family="Arial" font-size="12" text-anchor="end"><tspan>1</tspan></text></g><g fill="none" color="#000" stroke="currentColor"><path stroke="#000" d="M53.9 264.5h9m552.1 0h-9"/><text transform="translate(45.6 268.4)" stroke="none" fill="#000" font-family="Arial" font-size="12" text-anchor="end"><tspan>1.5</tspan></text></g><g fill="none" color="#000" stroke="currentColor"><path stroke="#000" d="M53.9 208.6h9m552.1 0h-9"/><text transform="translate(45.6 212.5)" stroke="none" fill="#000" font-family="Arial" font-size="12" text-anchor="end"><tspan>2</tspan></text></g><g fill="none" color="#000" stroke="currentColor"><path stroke="#000" d="M53.9 152.7h9m552.1 0h-9"/><text transform="translate(45.6 156.6)" stroke="none" fill="#000" font-family="Arial" font-size="12" text-anchor="end"><tspan>2.5</tspan></text></g><g fill="none" color="#000" stroke="currentColor"><path stroke="#000" d="M53.9 96.8h9m552.1 0h-9"/><text transform="translate(45.6 100.7)" stroke="none" fill="#000" font-family="Arial" font-size="12" text-anchor="end"><tspan>3</tspan></text></g><g fill="none" color="#000" stroke="currentColor"><path stroke="#000" d="M53.9 40.9h9m552.1 0h-9"/><text transform="translate(45.6 44.8)" stroke="none" fill="#000" font-family="Arial" font-size="12" text-anchor="end"><tspan>3.5</tspan></text></g><g fill="none" color="#000" stroke="currentColor"><path stroke="#000" d="M53.9 436v-9m0-408.9v9"/><text transform="translate(53.9 457.9)" stroke="none" fill="#000" font-family="Arial" font-size="12" text-anchor="middle"><tspan>0</tspan></text></g><g fill="none" color="#000" stroke="currentColor"><path stroke="#000" d="M110.6 436v-9m0-408.9v9"/><text transform="translate(110.6 457.9)" stroke="none" fill="#000" font-family="Arial" font-size="12" text-anchor="middle"><tspan>10</tspan></text></g><g fill="none" color="#000" stroke="currentColor"><path stroke="#000" d="M167.3 436v-9m0-408.9v9"/><text transform="translate(167.3 457.9)" stroke="none" fill="#000" font-family="Arial" font-size="12" text-anchor="middle"><tspan>20</tspan></text></g><g fill="none" color="#000" stroke="currentColor"><path stroke="#000" d="M223.9 436v-9m0-408.9v9"/><text transform="translate(223.9 457.9)" stroke="none" fill="#000" font-family="Arial" font-size="12" text-anchor="middle"><tspan>30</tspan></text></g><g fill="none" color="#000" stroke="currentColor"><path stroke="#000" d="M280.6 436v-9m0-408.9v9"/><text transform="translate(280.6 457.9)" stroke="none" fill="#000" font-family="Arial" font-size="12" text-anchor="middle"><tspan>40</tspan></text></g><g fill="none" color="#000" stroke="currentColor"><path stroke="#000" d="M337.3 436v-9m0-408.9v9"/><text transform="translate(337.3 457.9)" stroke="none" fill="#000" font-family="Arial" font-size="12" text-anchor="middle"><tspan>50</tspan></text></g><g fill="none" color="#000" stroke="currentColor"><path stroke="#000" d="M394 436v-9m0-408.9v9"/><text transform="translate(394 457.9)" stroke="none" fill="#000" font-family="Arial" font-size="12" text-anchor="middle"><tspan>60</tspan></text></g><g fill="none" color="#000" stroke="currentColor"><path stroke="#000" d="M450.6 436v-9m0-408.9v9"/><text transform="translate(450.6 457.9)" stroke="none" fill="#000" font-family="Arial" font-size="12" text-anchor="middle"><tspan>70</tspan></text></g><g fill="none" color="#000" stroke="currentColor"><path stroke="#000" d="M507.3 436v-9m0-408.9v9"/><text transform="translate(507.3 457.9)" stroke="none" fill="#000" font-family="Arial" font-size="12" text-anchor="middle"><tspan>80</tspan></text></g><g fill="none" color="#000" stroke="currentColor"><path stroke="#000" d="M564 436v-9m0-408.9v9"/><text transform="translate(564 457.9)" stroke="none" fill="#000" font-family="Arial" font-size="12" text-anchor="middle"><tspan>90</tspan></text></g><path stroke="#000" d="M53.9 18.1V436H615V18.1H53.9z" fill="none" color="#000"/><text transform="translate(317.5 475.9)" stroke="none" fill="#000" font-family="Arial" font-size="12" text-anchor="end" color="#000"><tspan>raw</tspan></text><path stroke="#9400D3" d="M325.8 472H368M53.9 428l5.7-1.1 5.6-.2h5.7l5.7-.1 5.6-.1 5.7-.1h5.7l5.6-.1 5.7-.1 5.7-.2h11.3l5.7-.1h17l5.7-.2 5.6-.3h5.7l5.7-.2 5.6-.1 5.7-.1h11.3l5.7-.1 5.7-.1h11.3l5.7-.1h11.3l5.7-.2h11.3l5.7-.1h22.6l5.7-.1 5.7-.2h17l5.6-.1h17l5.7-.1h17l5.7-.1h5.7l5.6-.1h5.7l5.7-.2h5.6l5.7-.1 5.7-.1h5.6l5.7-.1h11.3l5.7-.6 5.7-.1h11.3l5.7-.1 5.6-.1 5.7-.1h5.7l5.6-.4 5.7-.2 5.7-.1h5.6l5.7-.3 5.7-.5 5.6-.1 5.7-.8 5.7-.1 5.6-.3 5.7-.8 5.7-.7 5.7-.6 5.6-.4 5.7-.2 5.7-.2 5.6-.3h5.7l5.7-.2 5.6-.1 5.7-.2 5.7-.7 5.6-1.8 5.7-303.3 5.7-29.8 5.6-39.5 5.7-14.5" fill="none" color="#000"/><g fill="none" color="#000" stroke="currentColor"><path stroke="#000" d="M53.9 18.1V436H615V18.1H53.9z"/></g></svg>

<?xml version="1.0" encoding="utf-8"  standalone="no"?>
<svg 
 width="640" height="490"
 viewBox="0 0 640 490"
 xmlns="http://www.w3.org/2000/svg"
 xmlns:xlink="http://www.w3.org/1999/xlink"
>

<title>Gnuplot</title>
<desc>Produced by GNUPLOT 5.4 patchlevel 0 </desc>

<g id="gnuplot_canvas">

<rect x="0" y="0" width="640" height="490" fill="#ffffff"/>
<defs>

	<circle id='gpDot' r='0.5' stroke-width='0.5' stroke='currentColor'/>
	<path id='gpPt0' stroke-width='0.222' stroke='currentColor' d='M-1,0 h2 M0,-1 v2'/>
	<path id='gpPt1' stroke-width='0.222' stroke='currentColor' d='M-1,-1 L1,1 M1,-1 L-1,1'/>
	<path id='gpPt2' stroke-width='0.222' stroke='currentColor' d='M-1,0 L1,0 M0,-1 L0,1 M-1,-1 L1,1 M-1,1 L1,-1'/>
	<rect id='gpPt3' stroke-width='0.222' stroke='currentColor' x='-1' y='-1' width='2' height='2'/>
	<rect id='gpPt4' stroke-width='0.222' stroke='currentColor' fill='currentColor' x='-1' y='-1' width='2' height='2'/>
	<circle id='gpPt5' stroke-width='0.222' stroke='currentColor' cx='0' cy='0' r='1'/>
	<use xlink:href='#gpPt5' id='gpPt6' fill='currentColor' stroke='none'/>
	<path id='gpPt7' stroke-width='0.222' stroke='currentColor' d='M0,-1.33 L-1.33,0.67 L1.33,0.67 z'/>
	<use xlink:href='#gpPt7' id='gpPt8' fill='currentColor' stroke='none'/>
	<use xlink:href='#gpPt7' id='gpPt9' stroke='currentColor' transform='rotate(180)'/>
	<use xlink:href='#gpPt9' id='gpPt10' fill='currentColor' stroke='none'/>
	<use xlink:href='#gpPt3' id='gpPt11' stroke='currentColor' transform='rotate(45)'/>
	<use xlink:href='#gpPt11' id='gpPt12' fill='currentColor' stroke='none'/>
	<path id='gpPt13' stroke-width='0.222' stroke='currentColor' d='M0,1.330 L1.265,0.411 L0.782,-1.067 L-0.782,-1.076 L-1.265,0.411 z'/>
	<use xlink:href='#gpPt13' id='gpPt14' fill='currentColor' stroke='none'/>
	<filter id='textbox' filterUnits='objectBoundingBox' x='0' y='0' height='1' width='1'>
	  <feFlood flood-color='#FFFFFF' flood-opacity='1' result='bgnd'/>
	  <feComposite in='SourceGraphic' in2='bgnd' operator='atop'/>
	</filter>
	<filter id='greybox' filterUnits='objectBoundingBox' x='0' y='0' height='1' width='1'>
	  <feFlood flood-color='lightgrey' flood-opacity='1' result='grey'/>
	  <feComposite in='SourceGraphic' in2='grey' operator='atop'/>
	</filter>
</defs>
<g fill="none" color="#FFFFFF" stroke="black" stroke-width="1.00" stroke-linecap="butt" stroke-linejoin="miter">
</g>
<g fill="none" color="black" stroke="currentColor" stroke-width="1.00" stroke-linecap="butt" stroke-linejoin="miter">
	<path stroke='black'  d='M53.9,432.2 L62.9,432.2 M615.0,432.2 L606.0,432.2  '/>	<g transform="translate(45.6,436.1)" stroke="none" fill="black" font-family="Arial" font-size="12.00"  text-anchor="end">
		<text><tspan font-family="Arial" > 0</tspan></text>
	</g>
</g>
<g fill="none" color="black" stroke="currentColor" stroke-width="1.00" stroke-linecap="butt" stroke-linejoin="miter">
	<path stroke='black'  d='M53.9,376.3 L62.9,376.3 M615.0,376.3 L606.0,376.3  '/>	<g transform="translate(45.6,380.2)" stroke="none" fill="black" font-family="Arial" font-size="12.00"  text-anchor="end">
		<text><tspan font-family="Arial" > 0.5</tspan></text>
	</g>
</g>
<g fill="none" color="black" stroke="currentColor" stroke-width="1.00" stroke-linecap="butt" stroke-linejoin="miter">
	<path stroke='black'  d='M53.9,320.4 L62.9,320.4 M615.0,320.4 L606.0,320.4  '/>	<g transform="translate(45.6,324.3)" stroke="none" fill="black" font-family="Arial" font-size="12.00"  text-anchor="end">
		<text><tspan font-family="Arial" > 1</tspan></text>
	</g>
</g>
<g fill="none" color="black" stroke="currentColor" stroke-width="1.00" stroke-linecap="butt" stroke-linejoin="miter">
	<path stroke='black'  d='M53.9,264.5 L62.9,264.5 M615.0,264.5 L606.0,264.5  '/>	<g transform="translate(45.6,268.4)" stroke="none" fill="black" font-family="Arial" font-size="12.00"  text-anchor="end">
		<text><tspan font-family="Arial" > 1.5</tspan></text>
	</g>
</g>
<g fill="none" color="black" stroke="currentColor" stroke-width="1.00" stroke-linecap="butt" stroke-linejoin="miter">
	<path stroke='black'  d='M53.9,208.6 L62.9,208.6 M615.0,208.6 L606.0,208.6  '/>	<g transform="translate(45.6,212.5)" stroke="none" fill="black" font-family="Arial" font-size="12.00"  text-anchor="end">
		<text><tspan font-family="Arial" > 2</tspan></text>
	</g>
</g>
<g fill="none" color="black" stroke="currentColor" stroke-width="1.00" stroke-linecap="butt" stroke-linejoin="miter">
	<path stroke='black'  d='M53.9,152.7 L62.9,152.7 M615.0,152.7 L606.0,152.7  '/>	<g transform="translate(45.6,156.6)" stroke="none" fill="black" font-family="Arial" font-size="12.00"  text-anchor="end">
		<text><tspan font-family="Arial" > 2.5</tspan></text>
	</g>
</g>
<g fill="none" color="black" stroke="currentColor" stroke-width="1.00" stroke-linecap="butt" stroke-linejoin="miter">
	<path stroke='black'  d='M53.9,96.8 L62.9,96.8 M615.0,96.8 L606.0,96.8  '/>	<g transform="translate(45.6,100.7)" stroke="none" fill="black" font-family="Arial" font-size="12.00"  text-anchor="end">
		<text><tspan font-family="Arial" > 3</tspan></text>
	</g>
</g>
<g fill="none" color="black" stroke="currentColor" stroke-width="1.00" stroke-linecap="butt" stroke-linejoin="miter">
	<path stroke='black'  d='M53.9,40.9 L62.9,40.9 M615.0,40.9 L606.0,40.9  '/>	<g transform="translate(45.6,44.8)" stroke="none" fill="black" font-family="Arial" font-size="12.00"  text-anchor="end">
		<text><tspan font-family="Arial" > 3.5</tspan></text>
	</g>
</g>
<g fill="none" color="black" stroke="currentColor" stroke-width="1.00" stroke-linecap="butt" stroke-linejoin="miter">
	<path stroke='black'  d='M53.9,436.0 L53.9,427.0 M53.9,18.1 L53.9,27.1  '/>	<g transform="translate(53.9,457.9)" stroke="none" fill="black" font-family="Arial" font-size="12.00"  text-anchor="middle">
		<text><tspan font-family="Arial" > 0</tspan></text>
	</g>
</g>
<g fill="none" color="black" stroke="currentColor" stroke-width="1.00" stroke-linecap="butt" stroke-linejoin="miter">
	<path stroke='black'  d='M110.6,436.0 L110.6,427.0 M110.6,18.1 L110.6,27.1  '/>	<g transform="translate(110.6,457.9)" stroke="none" fill="black" font-family="Arial" font-size="12.00"  text-anchor="middle">
		<text><tspan font-family="Arial" > 10</tspan></text>
	</g>
</g>
<g fill="none" color="black" stroke="currentColor" stroke-width="1.00" stroke-linecap="butt" stroke-linejoin="miter">
	<path stroke='black'  d='M167.3,436.0 L167.3,427.0 M167.3,18.1 L167.3,27.1  '/>	<g transform="translate(167.3,457.9)" stroke="none" fill="black" font-family="Arial" font-size="12.00"  text-anchor="middle">
		<text><tspan font-family="Arial" > 20</tspan></text>
	</g>
</g>
<g fill="none" color="black" stroke="currentColor" stroke-width="1.00" stroke-linecap="butt" stroke-linejoin="miter">
	<path stroke='black'  d='M223.9,436.0 L223.9,427.0 M223.9,18.1 L223.9,27.1  '/>	<g transform="translate(223.9,457.9)" stroke="none" fill="black" font-family="Arial" font-size="12.00"  text-anchor="middle">
		<text><tspan font-family="Arial" > 30</tspan></text>
	</g>
</g>
<g fill="none" color="black" stroke="currentColor" stroke-width="1.00" stroke-linecap="butt" stroke-linejoin="miter">
	<path stroke='black'  d='M280.6,436.0 L280.6,427.0 M280.6,18.1 L280.6,27.1  '/>	<g transform="translate(280.6,457.9)" stroke="none" fill="black" font-family="Arial" font-size="12.00"  text-anchor="middle">
		<text><tspan font-family="Arial" > 40</tspan></text>
	</g>
</g>
<g fill="none" color="black" stroke="currentColor" stroke-width="1.00" stroke-linecap="butt" stroke-linejoin="miter">
	<path stroke='black'  d='M337.3,436.0 L337.3,427.0 M337.3,18.1 L337.3,27.1  '/>	<g transform="translate(337.3,457.9)" stroke="none" fill="black" font-family="Arial" font-size="12.00"  text-anchor="middle">
		<text><tspan font-family="Arial" > 50</tspan></text>
	</g>
</g>
<g fill="none" color="black" stroke="currentColor" stroke-width="1.00" stroke-linecap="butt" stroke-linejoin="miter">
	<path stroke='black'  d='M394.0,436.0 L394.0,427.0 M394.0,18.1 L394.0,27.1  '/>	<g transform="translate(394.0,457.9)" stroke="none" fill="black" font-family="Arial" font-size="12.00"  text-anchor="middle">
		<text><tspan font-family="Arial" > 60</tspan></text>
	</g>
</g>
<g fill="none" color="black" stroke="currentColor" stroke-width="1.00" stroke-linecap="butt" stroke-linejoin="miter">
	<path stroke='black'  d='M450.6,436.0 L450.6,427.0 M450.6,18.1 L450.6,27.1  '/>	<g transform="translate(450.6,457.9)" stroke="none" fill="black" font-family="Arial" font-size="12.00"  text-anchor="middle">
		<text><tspan font-family="Arial" > 70</tspan></text>
	</g>
</g>
<g fill="none" color="black" stroke="currentColor" stroke-width="1.00" stroke-linecap="butt" stroke-linejoin="miter">
	<path stroke='black'  d='M507.3,436.0 L507.3,427.0 M507.3,18.1 L507.3,27.1  '/>	<g transform="translate(507.3,457.9)" stroke="none" fill="black" font-family="Arial" font-size="12.00"  text-anchor="middle">
		<text><tspan font-family="Arial" > 80</tspan></text>
	</g>
</g>
<g fill="none" color="black" stroke="currentColor" stroke-width="1.00" stroke-linecap="butt" stroke-linejoin="miter">
	<path stroke='black'  d='M564.0,436.0 L564.0,427.0 M564.0,18.1 L564.0,27.1  '/>	<g transform="translate(564.0,457.9)" stroke="none" fill="black" font-family="Arial" font-size="12.00"  text-anchor="middle">
		<text><tspan font-family="Arial" > 90</tspan></text>
	</g>
</g>
<g fill="none" color="black" stroke="currentColor" stroke-width="1.00" stroke-linecap="butt" stroke-linejoin="miter">
</g>
<g fill="none" color="black" stroke="currentColor" stroke-width="1.00" stroke-linecap="butt" stroke-linejoin="miter">
	<path stroke='black'  d='M53.9,18.1 L53.9,436.0 L615.0,436.0 L615.0,18.1 L53.9,18.1 Z  '/></g>
<g fill="none" color="black" stroke="currentColor" stroke-width="1.00" stroke-linecap="butt" stroke-linejoin="miter">
</g>
	<g id="gnuplot_plot_1" ><title>raw</title>
<g fill="none" color="black" stroke="currentColor" stroke-width="1.00" stroke-linecap="butt" stroke-linejoin="miter">
	<g transform="translate(317.5,475.9)" stroke="none" fill="black" font-family="Arial" font-size="12.00"  text-anchor="end">
		<text><tspan font-family="Arial" >raw</tspan></text>
	</g>
</g>
<g fill="none" color="black" stroke="currentColor" stroke-width="1.00" stroke-linecap="butt" stroke-linejoin="miter">
	<path stroke='rgb(148,   0, 211)'  d='M325.8,472.0 L368.0,472.0 M53.9,428.0 L59.6,426.9 L65.2,426.7 L70.9,426.7 L76.6,426.6 L82.2,426.5
		L87.9,426.4 L93.6,426.4 L99.2,426.3 L104.9,426.2 L110.6,426.0 L116.2,426.0 L121.9,426.0 L127.6,425.9
		L133.2,425.9 L138.9,425.9 L144.6,425.9 L150.3,425.7 L155.9,425.4 L161.6,425.4 L167.3,425.2 L172.9,425.1
		L178.6,425.0 L184.3,425.0 L189.9,425.0 L195.6,424.9 L201.3,424.8 L206.9,424.8 L212.6,424.8 L218.3,424.7
		L223.9,424.7 L229.6,424.7 L235.3,424.5 L240.9,424.5 L246.6,424.5 L252.3,424.4 L257.9,424.4 L263.6,424.4
		L269.3,424.4 L274.9,424.4 L280.6,424.3 L286.3,424.1 L291.9,424.1 L297.6,424.1 L303.3,424.1 L308.9,424.0
		L314.6,424.0 L320.3,424.0 L325.9,424.0 L331.6,423.9 L337.3,423.9 L343.0,423.9 L348.6,423.9 L354.3,423.8
		L360.0,423.8 L365.6,423.7 L371.3,423.7 L377.0,423.5 L382.6,423.5 L388.3,423.4 L394.0,423.3 L399.6,423.3
		L405.3,423.2 L411.0,423.2 L416.6,423.2 L422.3,422.6 L428.0,422.5 L433.6,422.5 L439.3,422.5 L445.0,422.4
		L450.6,422.3 L456.3,422.2 L462.0,422.2 L467.6,421.8 L473.3,421.6 L479.0,421.5 L484.6,421.5 L490.3,421.2
		L496.0,420.7 L501.6,420.6 L507.3,419.8 L513.0,419.7 L518.6,419.4 L524.3,418.6 L530.0,417.9 L535.7,417.3
		L541.3,416.9 L547.0,416.7 L552.7,416.5 L558.3,416.2 L564.0,416.2 L569.7,416.0 L575.3,415.9 L581.0,415.7
		L586.7,415.0 L592.3,413.2 L598.0,109.9 L603.7,80.1 L609.3,40.6 L615.0,26.1  '/></g>
	</g>
<g fill="none" color="#FFFFFF" stroke="rgb(148,   0, 211)" stroke-width="2.00" stroke-linecap="butt" stroke-linejoin="miter">
</g>
<g fill="none" color="black" stroke="currentColor" stroke-width="2.00" stroke-linecap="butt" stroke-linejoin="miter">
</g>
<g fill="none" color="black" stroke="black" stroke-width="1.00" stroke-linecap="butt" stroke-linejoin="miter">
</g>
<g fill="none" color="black" stroke="currentColor" stroke-width="1.00" stroke-linecap="butt" stroke-linejoin="miter">
	<path stroke='black'  d='M53.9,18.1 L53.9,436.0 L615.0,436.0 L615.0,18.1 L53.9,18.1 Z  '/></g>
<g fill="none" color="black" stroke="currentColor" stroke-width="1.00" stroke-linecap="butt" stroke-linejoin="miter">
</g>
</g>
</svg>
